X:14
T:English Duty - Grenadiers March ThFife.14, The
T:English Duty ThFife.14, The
T:Grenadiers March ThFife.14
B:Thompson, C. & Thompson, S., 'The Compleat Tutor for the Fife', London, c.1765-1780.
S:Digitised by National Library of Scotland at: https://archive.org/details/nlsmusic
Z:vmp Roger Hare, 2019.
M:2/4
L:1/8
Q:1/4=100
K:G
|: A | G>AB>c | d2 de | d2 g2 | f2 e2 | e2 de | d2 d2 |
A>Bc>d | B3 A | G>AB>c | d2 d2 | a>gf>e | d3 B/c/ |
d3 B/d/ | c2 A>c | B>AG>B | A2 DB/c/ | d2 B>d | c2 A>c |
B>AG>B | A3 (3d/e/f/ | g3 e | d2 g2 | B2 cA | G3 :|
|: e | d>ef>g | a>gf>e | d2 e^c | d3 e | d>ef>g | a>gf>e |
d2 e^c | d3 e | d>ef>g | a2 c2 | d>cB>A | B4 |
e3 g | d3 g | B>AG>B | A2 D2 | e3 g | d3 g |
B>AG>B | A3 g | e3 g | d2 g2 | B2 cA | G3 :|

